icons/knife-line.svg

<svg xmlns="http://www.w3.org/2000/svg" width="24" height="24" fill="none"><g clip-path="url(#a)"><g><path fill="#121212" d="M4.34159 1.40796L22.3726 19.44C22.654 19.7212 22.8121 20.1027 22.8122 20.5006C22.8123 20.8985 22.6544 21.2801 22.3731 21.5615C22.0918 21.8429 21.7103 22.001 21.3124 22.0011C20.9146 22.0012 20.533 21.8432 20.2516 21.562L15.6556 16.965L12.1196 20.5L4.34159 12.722C2.87166 11.2522 2.0315 9.2681 1.99902 7.18971C1.96655 5.11132 2.7443 3.10189 4.16759 1.58696L4.34159 1.40796ZM4.58259 4.47796L4.53159 4.58796C4.04668 5.66002 3.8874 6.85091 4.07354 8.01272C4.25967 9.17453 4.78303 10.2561 5.57859 11.123L5.75559 11.308L12.1186 17.671L14.9476 14.843L4.58259 4.47796Z"/></g></g><defs><clipPath id="a"><rect width="24" height="24" fill="white"/></clipPath></defs></svg>

<svg width="24" height="24" fill="none" xmlns="http://www.w3.org/2000/svg"><g clip-path="url(#a)"><path d="m4.342 1.408 18.03 18.032a1.5 1.5 0 1 1-2.12 2.122l-4.596-4.597L12.12 20.5l-7.778-7.778a8 8 0 0 1-.174-11.135l.174-.179Zm.24 3.07-.05.11a6.005 6.005 0 0 0 1.047 6.535l.177.185 6.363 6.363 2.829-2.828L4.583 4.478Z" /></g><defs><clipPath id="a"><path fill="#fff" d="M0 0h24v24H0z"/></clipPath></defs></svg>
